X: 101
T: Pollonesse #101
M: 3/4
L: 1/16
R: Pollonesse
K: D
Q: 110
DEFG A2A2 A4|GFED B2B2 A4|d2ef g2f2 e2d2|c2d2 e2c2 A4|
DEFG A2A2 A4|GFED B2B2 A4|A2 g4f4 (ed)|cdec d4D4:|
|:ABcd e2e2 e4|dcBA g2f2 e4|ABcd e2e2 e4|dcBA g2f2 e4|
DEFG A2A2 A4|GFED B2B2 A4|A2 g4f4 (ed)|cdec d4D4:|

